Modules/BetterCms.Module.Root/Scss/assets/icons/overlay-delete.svg

<svg xmlns="http://www.w3.org/2000/svg" width="18" height="19" viewBox="-296 387 18 19" enable-background="new -296 387 18 19"><path d="m-291 387v4.2h-5v2.1h2v12.7h14v-12.7h2v-2.1h-5v-4.2h-8m2 2h4v2h-4v-2m-3 4h10v11h-10v-11m6 8h2v-4h-2v4m-4 0h2v-4h-2v4" fill="#fff"/></svg>

<?xml version="1.0" encoding="utf-8"?>
<!-- Generator: Adobe Illustrator 19.1.0, SVG Export Plug-In . SVG Version: 6.00 Build 0)  -->
<svg version="1.1" id="Layer_1" xmlns="http://www.w3.org/2000/svg" xmlns:xlink="http://www.w3.org/1999/xlink" x="0px" y="0px"
	 width="18px" height="19px" viewBox="-296 387 18 19" style="enable-background:new -296 387 18 19;" xml:space="preserve">
<style type="text/css">
	.st0{fill:#FFFFFF;}
</style>
<path class="st0" d="M-291,387v4.2h-5v2.1h2V406h14v-12.7h2v-2.1h-5V387H-291z M-289,389h4v2h-4V389z M-292,393h10v11h-10V393z
	 M-286,401h2v-4h-2V401z M-290,401h2v-4h-2V401z"/>
</svg>
